;FLAVOR:Marlin
;TIME:1621
;Filament used: 1.19721m
;Layer height: 0.2
;MINX:91.2
;MINY:90.199
;MINZ:0.35
;MAXX:108.8
;MAXY:109.8
;MAXZ:25.35
;Generated with Cura_SteamEngine 5.4.0
M140 S45
M105
M190 S45
M104 S190
M105
M109 S190
M82 ;absolute extrusion mode
G28 ; home all axes
G1 Z15 F5000 ; lift nozzle
G92 E0
G1 F200 E3

G92 E0
G92 E0
G1 F1800 E-4
;LAYER_COUNT:126
;LAYER:0
M106 S255
G0 F3000 X92.071 Y90.983 Z0.35
;TYPE:SKIRT
G1 F1800 E0
G1 X92.725 Y90.505 E0.05658
G1 X93.453 Y90.262 E0.11019
G1 X94.002 Y90.208 E0.14872
G1 X106.189 Y90.221 E0.99993
G1 X106.749 Y90.32 E1.03965
G1 X107.307 Y90.534 E1.0814
G1 X107.965 Y91.001 E1.13775
G1 X108.493 Y91.722 E1.20017
G1 X108.738 Y92.456 E1.25422
G1 X108.792 Y92.999 E1.29233
G1 X108.783 Y107.134 E2.27961
G1 X108.661 Y107.827 E2.32876
G1 X108.398 Y108.432 E2.37484
G1 X107.926 Y109.02 E2.4275
G1 X107.276 Y109.496 E2.48377
G1 X106.55 Y109.736 E2.53718
G1 X106.086 Y109.788 E2.56979
G1 X102.32 Y109.792 E2.83283
G1 X101.966 Y109.781 E2.85757
G1 X98.028 Y109.781 E3.13262
G1 X97.626 Y109.791 E3.16071
G1 X93.811 Y109.779 E3.42718
G1 X93.251 Y109.68 E3.4669
G1 X92.693 Y109.466 E3.50864
G1 X92.035 Y108.999 E3.565
G1 X91.507 Y108.278 E3.62742
G1 X91.262 Y107.544 E3.68146
G1 X91.208 Y107.001 E3.71958
G1 X91.217 Y92.867 E4.70678
G1 X91.337 Y92.129 E4.75901
G1 X91.645 Y91.514 E4.80705
G1 X92.071 Y90.983 E4.8546
G0 F3000 X92.351 Y91.274
G1 F1800 X92.91 Y90.865 E4.90298
G1 X93.538 Y90.656 E4.94921
G1 X94.002 Y90.608 E4.98179
G1 X106.125 Y90.616 E5.82853
G1 X106.606 Y90.694 E5.86257
G1 X107.118 Y90.89 E5.90086
G1 X107.681 Y91.29 E5.9491
G1 X108.135 Y91.91 E6.00277
G1 X108.344 Y92.537 E6.04893
G1 X108.392 Y92.999 E6.08138
G1 X108.383 Y107.134 E7.06865
G1 X108.275 Y107.711 E7.10966
G1 X108.052 Y108.224 E7.14873
G1 X107.649 Y108.726 E7.19369
G1 X107.09 Y109.136 E7.24211
G1 X106.464 Y109.343 E7.28816
G1 X106.042 Y109.39 E7.31782
G1 X102.332 Y109.392 E7.57695
G1 X101.978 Y109.381 E7.60169
G1 X98.018 Y109.381 E7.87828
G1 X97.627 Y109.391 E7.9056
G1 X93.875 Y109.384 E8.16766
G1 X93.394 Y109.306 E8.2017
G1 X92.882 Y109.11 E8.23999
G1 X92.319 Y108.71 E8.28823
G1 X91.865 Y108.09 E8.3419
G1 X91.656 Y107.463 E8.38806
G1 X91.608 Y107.001 E8.4205
G1 X91.612 Y92.931 E9.40324
G1 X91.722 Y92.254 E9.45115
G1 X91.983 Y91.732 E9.49191
G1 X92.351 Y91.274 E9.53295
G0 F3000 X92.629 Y91.566
G1 F1800 X93.095 Y91.225 E9.57328
G1 X93.622 Y91.05 E9.61206
G1 X94.002 Y91.008 E9.63877
G1 X106.069 Y91.012 E10.4816
G1 X106.463 Y91.068 E10.5094
G1 X106.931 Y91.247 E10.5444
G1 X107.396 Y91.577 E10.58422
G1 X107.775 Y92.095 E10.62905
G1 X107.95 Y92.622 E10.66784
G1 X107.992 Y92.999 E10.69433
G1 X107.988 Y107.069 E11.67707
G1 X107.908 Y107.551 E11.7112
G1 X107.705 Y108.017 E11.7467
G1 X107.371 Y108.434 E11.78402
G1 X106.905 Y108.775 E11.82435
G1 X106.378 Y108.95 E11.86313
G1 X105.998 Y108.992 E11.88984
G1 X102.344 Y108.992 E12.14506
G1 X101.99 Y108.981 E12.16979
G1 X98.008 Y108.981 E12.44792
G1 X97.627 Y108.991 E12.47454
G1 X93.931 Y108.988 E12.73269
G1 X93.537 Y108.932 E12.76049
G1 X93.069 Y108.753 E12.79549
G1 X92.604 Y108.423 E12.83531
G1 X92.225 Y107.905 E12.88014
G1 X92.05 Y107.378 E12.91893
G1 X92.008 Y107.001 E12.94542
G1 X92.012 Y92.931 E13.92816
G1 X92.107 Y92.378 E13.96735
G1 X92.295 Y91.982 E13.99797
G1 X92.629 Y91.566 E14.03523
G0 F3000 X93.177 Y92.139
G1 F1800 X93.425 Y91.958 E14.05668
G1 X93.72 Y91.844 E14.07877
G1 X94.002 Y91.808 E14.09862
G1 X106.069 Y91.812 E14.94146
G1 X106.336 Y91.857 E14.96037
G1 X106.617 Y91.982 E14.98185
G1 X106.861 Y92.177 E15.00367
G1 X107.042 Y92.425 E15.02511
G1 X107.156 Y92.72 E15.0472
G1 X107.192 Y92.999 E15.06685
G1 X107.188 Y107.069 E16.04959
G1 X107.143 Y107.334 E16.06836
G1 X107.019 Y107.616 E16.08988
G1 X106.823 Y107.861 E16.11179
G1 X106.575 Y108.042 E16.13324
G1 X106.28 Y108.156 E16.15533
G1 X105.998 Y108.192 E16.17518
G1 X102.368 Y108.192 E16.42873
G1 X102.014 Y108.181 E16.45346
G1 X97.986 Y108.181 E16.7348
G1 X97.627 Y108.191 E16.75989
G1 X93.931 Y108.188 E17.01804
G1 X93.664 Y108.143 E17.03695
G1 X93.383 Y108.018 E17.05843
G1 X93.139 Y107.823 E17.08025
G1 X92.958 Y107.575 E17.10169
G1 X92.844 Y107.28 E17.12378
G1 X92.808 Y107.001 E17.14343
G1 X92.812 Y92.931 E18.12617
G1 X92.857 Y92.664 E18.14508
G1 X92.981 Y92.384 E18.16647
G1 X93.177 Y92.139 E18.18839
G0 F3000 X92.865 Y91.889
G1 F1800 X93.281 Y91.585 E18.22437
G1 X93.669 Y91.447 E18.25314
G1 X94.002 Y91.408 E18.27655
G1 X106.069 Y91.412 E19.11939
G1 X106.402 Y91.463 E19.14292
G1 X106.78 Y91.617 E19.17143
G1 X107.111 Y91.865 E19.20032
G1 X107.415 Y92.281 E19.2363
G1 X107.553 Y92.669 E19.26507
G1 X107.592 Y92.999 E19.28828
G1 X107.588 Y107.069 E20.27101
G1 X107.537 Y107.401 E20.29448
G1 X107.385 Y107.777 E20.3228
G1 X107.135 Y108.111 E20.35194
G1 X106.719 Y108.415 E20.38793
G1 X106.331 Y108.553 E20.41669
G1 X105.998 Y108.592 E20.44011
G1 X102.356 Y108.592 E20.69449
G1 X102.002 Y108.581 E20.71923
G1 X97.997 Y108.581 E20.99896
G1 X97.627 Y108.591 E21.02482
G1 X93.931 Y108.588 E21.28297
G1 X93.598 Y108.537 E21.3065
G1 X93.22 Y108.383 E21.33501
G1 X92.889 Y108.135 E21.3639
G1 X92.585 Y107.719 E21.39988
G1 X92.447 Y107.331 E21.42865
G1 X92.408 Y107.001 E21.45186
G1 X92.412 Y92.931 E22.43459
G1 X92.491 Y92.502 E22.46506
G1 X92.615 Y92.222 E22.48645
G1 X92.865 Y91.889 E22.51553
G1 F1800 E18.51553
;MESH:DoorJams-2.stl
G0 F3000 X93.429 Y92.988
G0 X102.019 Y107.081
G0 X102.019 Y107.38
;TYPE:WALL-INNER
G1 F1800 E22.51553
G1 F900 X102.385 Y107.392 E22.54111
G1 X105.955 Y107.392 E22.79046
G1 X106.195 Y107.333 E22.80773
G1 X106.333 Y107.195 E22.82136
G1 X106.39 Y106.992 E22.83608
G1 X106.391 Y92.934 E23.81798
G1 X106.274 Y92.726 E23.83465
G1 X106.068 Y92.61 E23.85116
G1 X93.934 Y92.609 E24.69868
G1 X93.726 Y92.726 E24.71535
G1 X93.61 Y92.932 E24.73186
G1 X93.608 Y106.955 E25.71131
G1 X93.667 Y107.195 E25.72858
G1 X93.805 Y107.333 E25.74221
G1 X94.008 Y107.39 E25.75694
G1 X97.617 Y107.391 E26.00901
G1 X97.981 Y107.381 E26.03444
G1 X102.019 Y107.38 E26.31648
G0 F3000 X102.019 Y107.78
;TYPE:WALL-OUTER
G1 F900 X102.379 Y107.792 E26.34164
G1 X105.981 Y107.792 E26.59323
G1 X106.204 Y107.762 E26.60894
G1 X106.397 Y107.683 E26.62351
G1 X106.559 Y107.559 E26.63776
G1 X106.683 Y107.397 E26.65201
G1 X106.79 Y107.021 E26.67931
G1 X106.791 Y93.019 E27.6573
G1 X106.762 Y92.796 E27.67301
G1 X106.683 Y92.603 E27.68757
G1 X106.559 Y92.441 E27.70182
G1 X106.397 Y92.317 E27.71607
G1 X106.021 Y92.21 E27.74338
G1 X94.019 Y92.209 E28.58167
G1 X93.796 Y92.238 E28.59738
G1 X93.603 Y92.317 E28.61195
G1 X93.441 Y92.441 E28.6262
G1 X93.317 Y92.603 E28.64044
G1 X93.21 Y92.979 E28.66775
G1 X93.208 Y106.981 E29.64574
G1 X93.238 Y107.204 E29.66145
G1 X93.317 Y107.397 E29.67602
G1 X93.441 Y107.559 E29.69027
G1 X93.603 Y107.683 E29.70452
G1 X93.979 Y107.79 E29.73182
G1 X97.623 Y107.791 E29.98634
G1 X97.981 Y107.781 E30.01136
G1 X102.019 Y107.78 E30.2934
G0 F3000 X102.219 Y107.786
G0 X102.025 Y107
;TYPE:SKIN
G1 F900 X97.98 Y107.001 E30.57592
G1 X97.61 Y107.011 E30.60178
G1 X93.988 Y107.01 E30.85476
G1 X93.99 Y92.99 E31.83401
G1 X106.01 Y92.99 E32.67356
G1 X106.01 Y107.012 E33.65294
G1 X102.393 Y107.012 E33.90558
G1 X102.025 Y107 E33.93129
G0 F3000 X94.188 Y106.633
G1 F900 X94.364 Y106.809 E33.94868
G0 F3000 X94.93 Y106.809
G1 F900 X94.188 Y106.067 E34.02197
G0 F3000 X94.188 Y105.501
G1 F900 X95.496 Y106.809 E34.15117
G0 F3000 X96.061 Y106.809
G1 F900 X94.188 Y104.936 E34.33618
G0 F3000 X94.188 Y104.37
G1 F900 X96.627 Y106.809 E34.5771
G0 F3000 X97.193 Y106.809
G1 F900 X94.188 Y103.804 E34.87393
G0 F3000 X94.188 Y103.239
G1 F900 X97.755 Y106.806 E35.22627
G0 F3000 X98.314 Y106.799
G1 F900 X94.188 Y102.673 E35.63382
G0 F3000 X94.188 Y102.108
G1 F900 X98.88 Y106.799 E36.09724
G0 F3000 X99.446 Y106.799
G1 F900 X94.188 Y101.542 E36.61656
G0 F3000 X94.188 Y100.976
G1 F900 X100.011 Y106.799 E37.19174
G0 F3000 X100.576 Y106.799
G1 F900 X94.188 Y100.411 E37.82273
G0 F3000 X94.188 Y99.845
G1 F900 X101.142 Y106.799 E38.50963
G0 F3000 X101.708 Y106.799
G1 F900 X94.188 Y99.279 E39.25244
G0 F3000 X94.188 Y98.714
G1 F900 X102.281 Y106.807 E40.05185
G0 F3000 X102.851 Y106.811
G1 F900 X94.188 Y98.148 E40.90756
G0 F3000 X94.189 Y97.583
G1 F900 X103.417 Y106.811 E41.81908
G0 F3000 X103.982 Y106.811
G1 F900 X94.189 Y97.017 E42.78645
G0 F3000 X94.189 Y96.452
G1 F900 X104.548 Y106.811 E43.80969
G0 F3000 X105.114 Y106.811
G1 F900 X94.189 Y95.886 E44.88884
G0 F3000 X94.189 Y95.32
G1 F900 X105.679 Y106.811 E46.02384
G0 F3000 X105.81 Y106.375
G1 F900 X94.189 Y94.755 E47.17168
G0 F3000 X94.189 Y94.189
G1 F900 X105.81 Y105.81 E48.31958
G0 F3000 X105.81 Y105.244
G1 F900 X94.189 Y93.623 E49.46747
G0 F3000 X94.322 Y93.191
G1 F900 X105.81 Y104.678 E50.60218
G0 F3000 X105.81 Y104.112
G1 F900 X94.888 Y93.191 E51.68098
G0 F3000 X95.453 Y93.191
G1 F900 X105.81 Y103.547 E52.70397
G0 F3000 X105.81 Y102.981
G1 F900 X96.019 Y93.191 E53.67105
G0 F3000 X96.585 Y93.191
G1 F900 X105.81 Y102.415 E54.58222
G0 F3000 X105.81 Y101.85
G1 F900 X97.15 Y93.191 E55.43759
G0 F3000 X97.716 Y93.191
G1 F900 X105.81 Y101.284 E56.23704
G0 F3000 X105.81 Y100.718
G1 F900 X98.282 Y93.191 E56.98059
G0 F3000 X98.847 Y93.191
G1 F900 X105.81 Y100.153 E57.66833
G0 F3000 X105.809 Y99.586
G1 F900 X99.413 Y93.191 E58.30006
G0 F3000 X99.979 Y93.191
G1 F900 X105.809 Y99.021 E58.87594
G0 F3000 X105.809 Y98.455
G1 F900 X100.544 Y93.191 E59.39595
G0 F3000 X101.11 Y93.191
G1 F900 X105.809 Y97.889 E59.86006
G0 F3000 X105.809 Y97.324
G1 F900 X101.676 Y93.191 E60.26831
G0 F3000 X102.241 Y93.191
G1 F900 X105.809 Y96.758 E60.62069
G0 F3000 X105.809 Y96.192
G1 F900 X102.807 Y93.191 E60.91718
G0 F3000 X103.373 Y93.191
G1 F900 X105.809 Y95.626 E61.15775
G0 F3000 X105.809 Y95.061
G1 F900 X103.939 Y93.191 E61.34246
G0 F3000 X104.504 Y93.191
G1 F900 X105.809 Y94.495 E61.47132
G0 F3000 X105.809 Y93.929
G1 F900 X105.07 Y93.191 E61.54426
G0 F3000 X105.636 Y93.191
G1 F900 X105.809 Y93.364 E61.56135
G0 F3000 X105.792 Y93.364
;MESH:NONMESH
G0 F600 X105.792 Y93.364 Z0.55
G0 F3000 X105.942 Y107.093
G0 X106.061 Y107.972
;TIME_ELAPSED:57.498882
;LAYER:1
;TYPE:WALL-INNER
;MESH:DoorJams-2.stl
G1 F2250 X106.376 Y107.889 E61.57219
G1 X106.571 Y107.777 E61.57967
G1 X106.843 Y107.471 E61.59328
G1 X106.972 Y107.084 E61.60685
G1 X106.972 Y92.939 E62.07732
G1 X106.889 Y92.624 E62.08815
G1 X106.768 Y92.413 E62.09624
G1 X106.586 Y92.231 E62.1048
G1 X106.369 Y92.106 E62.11313
G1 X106.081 Y92.029 E62.12305
G1 X93.939 Y92.028 E62.52689
G1 X93.624 Y92.111 E62.53773
G1 X93.429 Y92.222 E62.54519
G1 X93.159 Y92.527 E62.55874
G1 X93.028 Y92.916 E62.57239
G1 X93.028 Y107.061 E63.04285
G1 X93.111 Y107.376 E63.05369
G1 X93.232 Y107.587 E63.06178
G1 X93.413 Y107.769 E63.07032
G1 X93.631 Y107.894 E63.07867
G1 X93.924 Y107.973 E63.08877
G1 X106.061 Y107.972 E63.49244
G0 F4500 X106.113 Y108.372
;TYPE:WALL-OUTER
G1 F1350 X106.528 Y108.263 E63.50672
G1 X106.827 Y108.092 E63.51817
G1 X107.187 Y107.685 E63.53624
G1 X107.372 Y107.124 E63.55589
G1 X107.372 Y92.887 E64.02942
G1 X107.263 Y92.472 E64.04369
G1 X107.089 Y92.168 E64.05534
G1 X106.832 Y91.911 E64.06743
G1 X106.523 Y91.733 E64.07929
G1 X106.133 Y91.629 E64.09271
G1 X93.887 Y91.628 E64.50002
G1 X93.472 Y91.737 E64.51429
G1 X93.173 Y91.908 E64.52574
G1 X92.815 Y92.313 E64.54372
G1 X92.628 Y92.875 E64.56342
G1 X92.628 Y107.113 E65.03698
G1 X92.737 Y107.528 E65.05125
G1 X92.911 Y107.832 E65.0629
G1 X93.168 Y108.089 E65.07499
G1 X93.477 Y108.267 E65.08685
G1 X93.871 Y108.373 E65.10042
G1 X106.113 Y108.372 E65.50759
G0 F4500 X106.306 Y108.322
G0 X106.003 Y107.592
;TYPE:SKIN
G1 F1050 X93.972 Y107.593 E65.90774
G1 X93.657 Y107.469 E65.919
G1 X93.463 Y107.216 E65.92961
G1 X93.408 Y107.014 E65.93657
G1 X93.409 Y92.97 E66.40367
G1 X93.492 Y92.727 E66.41222
G1 X93.674 Y92.52 E66.42138
G1 X93.991 Y92.409 E66.43255
G1 X106.033 Y92.409 E66.83307
G1 X106.209 Y92.457 E66.83914
G1 X106.469 Y92.658 E66.85007
G1 X106.592 Y92.99 E66.86185
G1 X106.592 Y107.031 E67.32885
G1 X106.51 Y107.271 E67.33729
G1 X106.336 Y107.468 E67.34603
G1 X106.003 Y107.592 E67.35785
G0 F4500 X105.871 Y107.391
G1 F1050 X106.391 Y106.872 E67.38228
G0 F4500 X106.391 Y106.306
G1 F1050 X105.305 Y107.391 E67.43334
G0 F4500 X104.74 Y107.391
G1 F1050 X106.391 Y105.74 E67.511
G0 F4500 X106.391 Y105.175
G1 F1050 X104.174 Y107.391 E67.61526
G0 F4500 X103.608 Y107.391
G1 F1050 X106.391 Y104.609 E67.74614
G0 F4500 X106.391 Y104.043
G1 F1050 X103.043 Y107.391 E67.90362
G0 F4500 X102.477 Y107.391
G1 F1050 X106.391 Y103.478 E68.0877
G0 F4500 X106.391 Y102.912
G1 F1050 X101.911 Y107.391 E68.2984
G0 F4500 X101.346 Y107.391
G1 F1050 X106.391 Y102.346 E68.5357
G0 F4500 X106.391 Y101.78
G1 F1050 X100.78 Y107.391 E68.79962
G0 F4500 X100.214 Y107.391
G1 F1050 X106.391 Y101.215 E69.09015
G0 F4500 X106.391 Y100.649
G1 F1050 X99.649 Y107.391 E69.40727
G0 F4500 X99.083 Y107.391
G1 F1050 X106.391 Y100.083 E69.75102
G0 F4500 X106.391 Y99.518
G1 F1050 X98.517 Y107.391 E70.12136
G0 F4500 X97.951 Y107.391
G1 F1050 X106.391 Y98.952 E70.51833
G0 F4500 X106.391 Y98.386
G1 F1050 X97.386 Y107.391 E70.9419
G0 F4500 X96.82 Y107.391
G1 F1050 X106.391 Y97.821 E71.39206
G0 F4500 X106.391 Y97.255
G1 F1050 X96.254 Y107.391 E71.86885
G0 F4500 X95.689 Y107.391
G1 F1050 X106.391 Y96.689 E72.37224
G0 F4500 X106.391 Y96.124
G1 F1050 X95.123 Y107.391 E72.90223
G0 F4500 X94.557 Y107.391
G1 F1050 X106.391 Y95.558 E73.45884
G0 F4500 X106.391 Y94.992
G1 F1050 X93.993 Y107.39 E74.04201
G0 F4500 X93.666 Y107.151
G1 F1050 X106.391 Y94.427 E74.64053
G0 F4500 X106.391 Y93.861
G1 F1050 X93.608 Y106.644 E75.2418
G0 F4500 X93.608 Y106.078
G1 F1050 X106.391 Y93.295 E75.84308
G0 F4500 X106.318 Y92.802
G1 F1050 X93.608 Y105.513 E76.44094
G0 F4500 X93.608 Y104.947
G1 F1050 X105.946 Y92.609 E77.02128
G0 F4500 X105.38 Y92.609
G1 F1050 X93.608 Y104.381 E77.575
G0 F4500 X93.608 Y103.816
G1 F1050 X104.815 Y92.609 E78.10214
G0 F4500 X104.249 Y92.609
G1 F1050 X93.608 Y103.25 E78.60266
G0 F4500 X93.608 Y102.684
G1 F1050 X103.683 Y92.609 E79.07656
G0 F4500 X103.118 Y92.609
G1 F1050 X93.608 Y102.118 E79.52386
G0 F4500 X93.608 Y101.553
G1 F1050 X102.552 Y92.609 E79.94456
G0 F4500 X101.986 Y92.609
G1 F1050 X93.608 Y100.987 E80.33863
G0 F4500 X93.608 Y100.421
G1 F1050 X101.421 Y92.609 E80.70611
G0 F4500 X100.855 Y92.609
G1 F1050 X93.608 Y99.856 E81.04698
G0 F4500 X93.608 Y99.29
G1 F1050 X100.289 Y92.609 E81.36124
G0 F4500 X99.723 Y92.609
G1 F1050 X93.608 Y98.724 E81.64887
G0 F4500 X93.608 Y98.159
G1 F1050 X99.158 Y92.609 E81.90992
G0 F4500 X98.592 Y92.609
G1 F1050 X93.608 Y97.593 E82.14436
G0 F4500 X93.608 Y97.027
G1 F1050 X98.026 Y92.609 E82.35216
G0 F4500 X97.461 Y92.609
G1 F1050 X93.608 Y96.462 E82.5334
G0 F4500 X93.608 Y95.896
G1 F1050 X96.895 Y92.609 E82.68801
G0 F4500 X96.329 Y92.609
G1 F1050 X93.608 Y95.33 E82.816
G0 F4500 X93.608 Y94.765
G1 F1050 X95.764 Y92.609 E82.91741
G0 F4500 X95.198 Y92.609
G1 F1050 X93.608 Y94.199 E82.9922
G0 F4500 X93.608 Y93.633
G1 F1050 X94.632 Y92.609 E83.04036
G0 F4500 X94.067 Y92.609
G1 F1050 X93.608 Y93.067 E83.06193
G0 F4500 X93.628 Y93.067
;MESH:NONMESH
G0 F600 X93.628 Y93.067 Z0.75
G0 F4500 X106.027 Y107.673
G0 X106.103 Y108.26
;TIME_ELAPSED:95.669672
;LAYER:2
;TYPE:WALL-INNER
;MESH:DoorJams-2.stl
G1 F3600 X106.303 Y108.22 E83.06871
G1 X106.767 Y107.995 E83.08586
G1 X107.077 Y107.65 E83.10129
G1 X107.222 Y107.302 E83.11383
G1 X107.261 Y107.103 E83.12057
G1 X107.261 Y92.894 E83.59317
G1 X107.222 Y92.69 E83.60008
G1 X106.997 Y92.234 E83.61699
G1 X106.65 Y91.923 E83.63249
G1 X106.326 Y91.788 E83.64416
G1 X105.955 Y91.739 E83.65661
G1 X93.897 Y91.739 E84.05766
G1 X93.697 Y91.78 E84.06445
G1 X93.234 Y92.004 E84.08155
G1 X92.925 Y92.347 E84.09691
G1 X92.777 Y92.7 E84.10964
G1 X92.74 Y92.89 E84.11608
G1 X92.739 Y107.104 E84.58884
G1 X92.779 Y107.302 E84.59556
G1 X93.004 Y107.766 E84.61271
G1 X93.351 Y108.077 E84.62821
G1 X93.892 Y108.26 E84.6472
G1 X106.103 Y108.26 E85.05334
G0 F6000 X106.143 Y108.66
;TYPE:WALL-OUTER
G1 F1800 X106.419 Y108.605 E85.0627
G1 X106.837 Y108.434 E85.07772
G1 X107.026 Y108.303 E85.08537
G1 X107.431 Y107.84 E85.10583
G1 X107.607 Y107.418 E85.12104
